X: 25651
T: Martin Rochford's
R: reel
M: 4/4
K: Fmajor
F2C2 FGAB|cAdA cAGA|F2CD F2dA|cAGB ADDE|
F2C2 FGAB|cAdA cAGA|F2CD F2dA|cAGB ADD2||
f3f edcd|Addc Adde|f2af edcA|cAGB ADD2|
f3f edcd|Addc d3e|faaf eggd|cAGB ADDE||

